Newaita-dark/apps/32/texstudio.svg

<svg height="32" viewBox="0 0 32 32" width="32" xmlns="http://www.w3.org/2000/svg" xmlns:xlink="http://www.w3.org/1999/xlink"><linearGradient id="a" gradientUnits="userSpaceOnUse" x1="15.87652" x2="15.87652" y1="28.033936" y2="29.35698000003"><stop offset="0" stop-opacity=".27451"/><stop offset="1" stop-opacity="0"/></linearGradient><linearGradient id="b"><stop offset="0" stop-opacity=".313726"/><stop offset=".222222" stop-opacity=".27451"/><stop offset="1" stop-opacity="0"/></linearGradient><radialGradient id="c" cx="450.908936" cy="189.579361" gradientTransform="matrix(.00000017 -.0781325 -.140638 -.0000001 48.823045 63.595333)" gradientUnits="userSpaceOnUse" r="21.166656" xlink:href="#b"/><radialGradient id="d" cx="450.908936" cy="189.579361" gradientTransform="matrix(-.00000017 .0781325 .140638 .0000001 -17.731532 -7.527479)" gradientUnits="userSpaceOnUse" r="21.166656" xlink:href="#b"/><radialGradient id="e" cx="450.908936" cy="189.579361" gradientTransform="matrix(-.00000017 -.0781325 .140638 -.0000001 -17.731532 63.595333)" gradientUnits="userSpaceOnUse" r="21.166656" xlink:href="#b"/><radialGradient id="f" cx="450.908936" cy="189.579361" gradientTransform="matrix(.00000017 .0781325 -.140638 .0000001 48.823043 -7.527479)" gradientUnits="userSpaceOnUse" r="21.166656" xlink:href="#b"/><linearGradient id="g" gradientUnits="userSpaceOnUse" x1="15.54572" x2="15.54572" y1="28.03386419623" y2="2.89610343548"><stop offset="0" stop-color="#616161"/><stop offset="1" stop-color="#757575"/></linearGradient><linearGradient id="h"><stop offset="0" stop-color="#ffa726"/><stop offset="1" stop-color="#ffb74d"/></linearGradient><linearGradient id="i" gradientUnits="userSpaceOnUse" x1="15.54572" x2="15.54572" xlink:href="#h" y1="28.03386419623" y2="2.89610343548"/><linearGradient id="j" gradientTransform="matrix(.0116942 .0116942 -.0116942 .0116942 20.837576 1.947993)" gradientUnits="userSpaceOnUse" x1="1157.781738" x2="614.728943" xlink:href="#h" y1="1072.898926" y2="504.996185"/><path d="m8.601562 28.035156h13.890626v1.320313h-13.890626zm0 0" fill="url(#a)"/><path d="m22.492188 28.035156h2.644531v-1.324218h-2.644531zm0 0" fill="url(#c)"/><path d="m8.601562 28.035156h-2.648437v1.320313h2.648437zm0 0" fill="url(#d)"/><path d="m8.601562 28.035156h-2.648437v-1.324218h2.648437zm0 0" fill="url(#e)"/><path d="m22.492188 28.035156h2.644531v1.320313h-2.644531zm0 0" fill="url(#f)"/><path d="m7.277344 2.894531c-.734375 0-1.324219.589844-1.324219 1.324219v22.492188c0 .734374.589844 1.324218 1.324219 1.324218h16.539062c.730469 0 1.320313-.589844 1.320313-1.324218v-17.859376l-5.953125-5.957031zm13.230468 0 4.628907 4.632813v-3.308594c0-.734375-.589844-1.324219-1.320313-1.324219zm0 0" fill="url(#g)"/><path d="m20.507812 2.894531 4.628907 4.632813v-3.308594c0-.734375-.589844-1.324219-1.320313-1.324219zm0 0" fill="url(#i)"/><path d="m7.277344 2.894531c-.734375 0-1.324219.589844-1.324219 1.324219v.332031c0-.734375.589844-1.324219 1.324219-1.324219h11.90625l5.953125 5.953126v-.328126l-5.953125-5.957031zm13.230468 0 .332032.332031h2.976562c.730469 0 1.320313.589844 1.320313 1.324219v-.332031c0-.734375-.589844-1.324219-1.320313-1.324219zm0 0" fill="#fff" fill-opacity=".392157"/><path d="m20.507812 2.894531 4.628907 4.632813v-.492188l-4.140625-4.140625zm-14.554687 23.324219v.492188c0 .734374.589844 1.324218 1.324219 1.324218h16.539062c.730469 0 1.320313-.589844 1.320313-1.324218v-.492188c0 .734375-.589844 1.324219-1.320313 1.324219h-16.539062c-.734375 0-1.324219-.589844-1.324219-1.324219zm0 0" fill-opacity=".235294"/><path d="m7.277344 2.800781c-.785156 0-1.417969.636719-1.417969 1.417969v22.492188c0 .785156.632813 1.417968 1.417969 1.417968h16.539062c.78125 0 1.414063-.632812 1.414063-1.417968v-17.859376c0-.027343-.007813-.050781-.027344-.066406l-5.953125-5.957031c-.015625-.015625-.039062-.027344-.066406-.027344zm13.230468 0c-.039062 0-.074218.023438-.085937.058594-.015625.035156-.007813.078125.019531.101563l4.628906 4.632812c.027344.027344.066407.035156.101563.019531s.058594-.046875.058594-.085937v-3.308594c0-.78125-.632813-1.417969-1.414063-1.417969zm-13.230468.1875h11.867187l5.898438 5.898438v17.824219c0 .683593-.546875 1.230468-1.226563 1.230468h-16.539062c-.683594 0-1.230469-.546875-1.230469-1.230468v-22.492188c0-.683594.546875-1.230469 1.230469-1.230469zm13.457031 0h3.082031c.679688 0 1.226563.546875 1.226563 1.230469v3.082031zm0 0" fill="#212121"/><path d="m24.871094 17.171875c-.339844 0-.675782.128906-.9375.390625l-5.378906 5.378906 3.277343 3.273438.699219-.703125 4.679688-4.675781c.515624-.519532.515624-1.351563 0-1.871094l-1.40625-1.402344c-.257813-.261719-.597657-.390625-.933594-.390625zm-7.015625 6.46875c-.078125.078125-.136719.171875-.167969.289063l-.9375 3.273437c-.140625.5.320312.960937.816406.816406l3.277344-.933593c.113281-.035157.210938-.09375.285156-.167969zm0 0" fill="url(#j)"/><path d="m24.835938 17.195312c-.335938 0-.675782.128907-.933594.386719l-4.679688 4.679688-.699218.703125.179687.179687.519531-.523437 4.679688-4.675782c.015625-.019531.03125-.035156.050781-.046874.015625-.015626.03125-.03125.050781-.046876.023438-.019531.050782-.039062.078125-.058593.027344-.019531.054688-.039063.082031-.054688.039063-.023437.078126-.042969.117188-.058593.136719-.066407.28125-.105469.429688-.117188.042968-.003906.085937-.007812.125-.007812.042968 0 .085937.003906.128906.007812.148437.011719.292968.050781.429687.117188.039063.015624.078125.035156.113281.058593.03125.015625.058594.035157.085938.054688s.050781.039062.078125.058593c.019531.015626.035156.03125.050781.046876.019532.011718.035156.027343.050782.046874l1.402343 1.402344c.011719.011719.023438.023438.035157.035156.003906.003907.007812.007813.011718.011719.007813.007813.015625.019531.023438.027344.003906.003906.007812.007813.011718.011719.007813.011718.015626.023437.023438.03125.003906.003906.003906.007812.007812.007812.007813.015625.019532.027344.027344.042969.003906 0 .003906.003906.007813.007813.007812.011718.015625.019531.023437.03125 0 .003906.003906.007812.007813.011718.003906.011719.011719.023438.019531.035156.003906.003907.003906.003907.003906.007813.011719.015625.019532.027344.027344.042969s.015625.03125.023438.046875c0 0 0 .003906.003906.007812.003906.011719.011718.023438.015625.035157 0 .003906.003906.007812.003906.011718.007813.015625.015625.027344.019531.042969.007813.019531.011719.035156.019532.050781.003906.015625.011718.03125.015624.046875v.003907c.003907.019531.011719.035156.015626.050781.007812.03125.015624.066406.019531.101562.003906.015625.007812.035157.007812.050781.054688-.394531-.070312-.808593-.375-1.113281l-1.402343-1.40625c-.257813-.257812-.597657-.386719-.9375-.386719zm-7.015626 6.46875c-.074218.078126-.132812.171876-.167968.285157l-.933594 3.277343c-.039062.125-.035156.25 0 .363282 0-.003906 0-.003906 0-.003906l.933594-3.273438c.035156-.117188.09375-.210938.167968-.289062l3.058594 3.058593c.085938-.035156.15625-.082031.214844-.144531zm0 0" fill="#d7d7d7" fill-opacity=".588235" fill-rule="evenodd"/><path d="m27.585938 19.734375c-.035157.28125-.160157.554687-.375.769531l-5.378907 5.378906-3.109375-3.109374-.167968.167968 3.277343 3.273438.699219-.703125 4.679688-4.675781c.300781-.300782.425781-.710938.375-1.101563zm-6.652344 6.984375c-.03125.015625-.058594.027344-.089844.035156l-3.277344.933594c-.375.109375-.730468-.128906-.820312-.46875-.125.492188.328125.941406.820312.800781l3.277344-.933593c.113281-.035157.210938-.09375.285156-.167969zm0 0" fill-opacity=".235294"/><g fill="none" stroke="#212121" stroke-linecap="round" stroke-linejoin="round" stroke-width="3" transform="matrix(.062506 0 0 .062506 0 13.438783)"><path d="m412.835576 65.973168c-8.249212-8.311706-21.622935-8.311706-29.934641 0l-86.054282 86.054283 52.432493 52.369999 11.186431-11.248926 74.867851-74.805357c8.249212-8.311706 8.249212-21.622935 0-29.934641zm0 0"/><path d="m285.660221 163.213882c-1.249881 1.249881-2.187291 2.749738-2.687244 4.624559l-14.998567 52.369999c-2.249785 7.999236 5.12451 15.373532 13.061252 13.061252l52.432493-14.936073c1.812327-.562447 3.374678-1.499857 4.562065-2.687244zm0 0"/></g></svg>

<?xml version="1.0" encoding="UTF-8"?>
<svg xmlns="http://www.w3.org/2000/svg" xmlns:xlink="http://www.w3.org/1999/xlink" width="32px" height="32px" viewBox="0 0 32 32" version="1.1">
<defs>
<linearGradient id="linear0" gradientUnits="userSpaceOnUse" x1="254" y1="233.5" x2="254" y2="254.666672" gradientTransform="matrix(0.062506,0,0,0.062506,-0.00000381506,13.438785)">
<stop offset="0" style="stop-color:rgb(0%,0%,0%);stop-opacity:0.27451;"/>
<stop offset="1" style="stop-color:rgb(0%,0%,0%);stop-opacity:0;"/>
</linearGradient>
<radialGradient id="radial0" gradientUnits="userSpaceOnUse" cx="450.908936" cy="189.579361" fx="450.908936" fy="189.579361" r="21.166656" gradientTransform="matrix(0.00000017417,-0.0781325,-0.140638,-0.000000101539,48.823045,63.595333)">
<stop offset="0" style="stop-color:rgb(0%,0%,0%);stop-opacity:0.313726;"/>
<stop offset="0.222222" style="stop-color:rgb(0%,0%,0%);stop-opacity:0.27451;"/>
<stop offset="1" style="stop-color:rgb(0%,0%,0%);stop-opacity:0;"/>
</radialGradient>
<radialGradient id="radial1" gradientUnits="userSpaceOnUse" cx="450.908936" cy="189.579361" fx="450.908936" fy="189.579361" r="21.166656" gradientTransform="matrix(-0.00000017417,0.0781325,0.140638,0.000000101539,-17.731532,-7.527479)">
<stop offset="0" style="stop-color:rgb(0%,0%,0%);stop-opacity:0.313726;"/>
<stop offset="0.222222" style="stop-color:rgb(0%,0%,0%);stop-opacity:0.27451;"/>
<stop offset="1" style="stop-color:rgb(0%,0%,0%);stop-opacity:0;"/>
</radialGradient>
<radialGradient id="radial2" gradientUnits="userSpaceOnUse" cx="450.908936" cy="189.579361" fx="450.908936" fy="189.579361" r="21.166656" gradientTransform="matrix(-0.00000017417,-0.0781325,0.140638,-0.000000101539,-17.731532,63.595333)">
<stop offset="0" style="stop-color:rgb(0%,0%,0%);stop-opacity:0.313726;"/>
<stop offset="0.222222" style="stop-color:rgb(0%,0%,0%);stop-opacity:0.27451;"/>
<stop offset="1" style="stop-color:rgb(0%,0%,0%);stop-opacity:0;"/>
</radialGradient>
<radialGradient id="radial3" gradientUnits="userSpaceOnUse" cx="450.908936" cy="189.579361" fx="450.908936" fy="189.579361" r="21.166656" gradientTransform="matrix(0.00000017417,0.0781325,-0.140638,0.000000101539,48.823043,-7.527479)">
<stop offset="0" style="stop-color:rgb(0%,0%,0%);stop-opacity:0.313726;"/>
<stop offset="0.222222" style="stop-color:rgb(0%,0%,0%);stop-opacity:0.27451;"/>
<stop offset="1" style="stop-color:rgb(0%,0%,0%);stop-opacity:0;"/>
</radialGradient>
<linearGradient id="linear1" gradientUnits="userSpaceOnUse" x1="940" y1="1695.118164" x2="940" y2="175.118118" gradientTransform="matrix(0.016538,0,0,0.016538,0,0)">
<stop offset="0" style="stop-color:rgb(38.039216%,38.039216%,38.039216%);stop-opacity:1;"/>
<stop offset="1" style="stop-color:rgb(45.882353%,45.882353%,45.882353%);stop-opacity:1;"/>
</linearGradient>
<linearGradient id="linear2" gradientUnits="userSpaceOnUse" x1="940" y1="1695.118164" x2="940" y2="175.118118" gradientTransform="matrix(0.016538,0,0,0.016538,0,0)">
<stop offset="0" style="stop-color:rgb(100%,65.490198%,14.901961%);stop-opacity:1;"/>
<stop offset="1" style="stop-color:rgb(100%,71.764708%,30.19608%);stop-opacity:1;"/>
</linearGradient>
<linearGradient id="linear3" gradientUnits="userSpaceOnUse" x1="1157.781738" y1="1072.898926" x2="614.728943" y2="504.996185" gradientTransform="matrix(0.0116942,0.0116942,-0.0116942,0.0116942,20.837576,1.947993)">
<stop offset="0" style="stop-color:rgb(100%,65.490198%,14.901961%);stop-opacity:1;"/>
<stop offset="1" style="stop-color:rgb(100%,71.764708%,30.19608%);stop-opacity:1;"/>
</linearGradient>
</defs>
<g id="surface1">
<path style=" stroke:none;fill-rule:nonzero;fill:url(#linear0);" d="M 8.601562 28.035156 L 22.492188 28.035156 L 22.492188 29.355469 L 8.601562 29.355469 Z M 8.601562 28.035156 "/>
<path style=" stroke:none;fill-rule:nonzero;fill:url(#radial0);" d="M 22.492188 28.035156 L 25.136719 28.035156 L 25.136719 26.710938 L 22.492188 26.710938 Z M 22.492188 28.035156 "/>
<path style=" stroke:none;fill-rule:nonzero;fill:url(#radial1);" d="M 8.601562 28.035156 L 5.953125 28.035156 L 5.953125 29.355469 L 8.601562 29.355469 Z M 8.601562 28.035156 "/>
<path style=" stroke:none;fill-rule:nonzero;fill:url(#radial2);" d="M 8.601562 28.035156 L 5.953125 28.035156 L 5.953125 26.710938 L 8.601562 26.710938 Z M 8.601562 28.035156 "/>
<path style=" stroke:none;fill-rule:nonzero;fill:url(#radial3);" d="M 22.492188 28.035156 L 25.136719 28.035156 L 25.136719 29.355469 L 22.492188 29.355469 Z M 22.492188 28.035156 "/>
<path style=" stroke:none;fill-rule:nonzero;fill:url(#linear1);" d="M 7.277344 2.894531 C 6.542969 2.894531 5.953125 3.484375 5.953125 4.21875 L 5.953125 26.710938 C 5.953125 27.445312 6.542969 28.035156 7.277344 28.035156 L 23.816406 28.035156 C 24.546875 28.035156 25.136719 27.445312 25.136719 26.710938 L 25.136719 8.851562 L 19.183594 2.894531 Z M 20.507812 2.894531 L 25.136719 7.527344 L 25.136719 4.21875 C 25.136719 3.484375 24.546875 2.894531 23.816406 2.894531 Z M 20.507812 2.894531 "/>
<path style=" stroke:none;fill-rule:nonzero;fill:url(#linear2);" d="M 20.507812 2.894531 L 25.136719 7.527344 L 25.136719 4.21875 C 25.136719 3.484375 24.546875 2.894531 23.816406 2.894531 Z M 20.507812 2.894531 "/>
<path style=" stroke:none;fill-rule:nonzero;fill:rgb(100%,100%,100%);fill-opacity:0.392157;" d="M 7.277344 2.894531 C 6.542969 2.894531 5.953125 3.484375 5.953125 4.21875 L 5.953125 4.550781 C 5.953125 3.816406 6.542969 3.226562 7.277344 3.226562 L 19.183594 3.226562 L 25.136719 9.179688 L 25.136719 8.851562 L 19.183594 2.894531 Z M 20.507812 2.894531 L 20.839844 3.226562 L 23.816406 3.226562 C 24.546875 3.226562 25.136719 3.816406 25.136719 4.550781 L 25.136719 4.21875 C 25.136719 3.484375 24.546875 2.894531 23.816406 2.894531 Z M 20.507812 2.894531 "/>
<path style=" stroke:none;fill-rule:nonzero;fill:rgb(0%,0%,0%);fill-opacity:0.235294;" d="M 20.507812 2.894531 L 25.136719 7.527344 L 25.136719 7.035156 L 20.996094 2.894531 Z M 5.953125 26.21875 L 5.953125 26.710938 C 5.953125 27.445312 6.542969 28.035156 7.277344 28.035156 L 23.816406 28.035156 C 24.546875 28.035156 25.136719 27.445312 25.136719 26.710938 L 25.136719 26.21875 C 25.136719 26.953125 24.546875 27.542969 23.816406 27.542969 L 7.277344 27.542969 C 6.542969 27.542969 5.953125 26.953125 5.953125 26.21875 Z M 5.953125 26.21875 "/>
<path style=" stroke:none;fill-rule:nonzero;fill:rgb(12.941177%,12.941177%,12.941177%);fill-opacity:1;" d="M 7.277344 2.800781 C 6.492188 2.800781 5.859375 3.4375 5.859375 4.21875 L 5.859375 26.710938 C 5.859375 27.496094 6.492188 28.128906 7.277344 28.128906 L 23.816406 28.128906 C 24.597656 28.128906 25.230469 27.496094 25.230469 26.710938 L 25.230469 8.851562 C 25.230469 8.824219 25.222656 8.800781 25.203125 8.785156 L 19.25 2.828125 C 19.234375 2.8125 19.210938 2.800781 19.183594 2.800781 Z M 20.507812 2.800781 C 20.46875 2.800781 20.433594 2.824219 20.421875 2.859375 C 20.40625 2.894531 20.414062 2.9375 20.441406 2.960938 L 25.070312 7.59375 C 25.097656 7.621094 25.136719 7.628906 25.171875 7.613281 C 25.207031 7.597656 25.230469 7.566406 25.230469 7.527344 L 25.230469 4.21875 C 25.230469 3.4375 24.597656 2.800781 23.816406 2.800781 Z M 7.277344 2.988281 L 19.144531 2.988281 L 25.042969 8.886719 L 25.042969 26.710938 C 25.042969 27.394531 24.496094 27.941406 23.816406 27.941406 L 7.277344 27.941406 C 6.59375 27.941406 6.046875 27.394531 6.046875 26.710938 L 6.046875 4.21875 C 6.046875 3.535156 6.59375 2.988281 7.277344 2.988281 Z M 20.734375 2.988281 L 23.816406 2.988281 C 24.496094 2.988281 25.042969 3.535156 25.042969 4.21875 L 25.042969 7.300781 Z M 20.734375 2.988281 "/>
<path style=" stroke:none;fill-rule:nonzero;fill:url(#linear3);" d="M 24.871094 17.171875 C 24.53125 17.171875 24.195312 17.300781 23.933594 17.5625 L 18.554688 22.941406 L 21.832031 26.214844 L 22.53125 25.511719 L 27.210938 20.835938 C 27.726562 20.316406 27.726562 19.484375 27.210938 18.964844 L 25.804688 17.5625 C 25.546875 17.300781 25.207031 17.171875 24.871094 17.171875 Z M 17.855469 23.640625 C 17.777344 23.71875 17.71875 23.8125 17.6875 23.929688 L 16.75 27.203125 C 16.609375 27.703125 17.070312 28.164062 17.566406 28.019531 L 20.84375 27.085938 C 20.957031 27.050781 21.054688 26.992188 21.128906 26.917969 Z M 17.855469 23.640625 "/>
<path style=" stroke:none;fill-rule:evenodd;fill:rgb(84.313726%,84.313726%,84.313726%);fill-opacity:0.588235;" d="M 24.835938 17.195312 C 24.5 17.195312 24.160156 17.324219 23.902344 17.582031 L 19.222656 22.261719 L 18.523438 22.964844 L 18.703125 23.144531 L 19.222656 22.621094 L 23.902344 17.945312 C 23.917969 17.925781 23.933594 17.910156 23.953125 17.898438 C 23.96875 17.882812 23.984375 17.867188 24.003906 17.851562 C 24.027344 17.832031 24.054688 17.8125 24.082031 17.792969 C 24.109375 17.773438 24.136719 17.753906 24.164062 17.738281 C 24.203125 17.714844 24.242188 17.695312 24.28125 17.679688 C 24.417969 17.613281 24.5625 17.574219 24.710938 17.5625 C 24.753906 17.558594 24.796875 17.554688 24.835938 17.554688 C 24.878906 17.554688 24.921875 17.558594 24.964844 17.5625 C 25.113281 17.574219 25.257812 17.613281 25.394531 17.679688 C 25.433594 17.695312 25.472656 17.714844 25.507812 17.738281 C 25.539062 17.753906 25.566406 17.773438 25.59375 17.792969 C 25.621094 17.8125 25.644531 17.832031 25.671875 17.851562 C 25.691406 17.867188 25.707031 17.882812 25.722656 17.898438 C 25.742188 17.910156 25.757812 17.925781 25.773438 17.945312 L 27.175781 19.347656 C 27.1875 19.359375 27.199219 19.371094 27.210938 19.382812 C 27.214844 19.386719 27.21875 19.390625 27.222656 19.394531 C 27.230469 19.402344 27.238281 19.414062 27.246094 19.421875 C 27.25 19.425781 27.253906 19.429688 27.257812 19.433594 C 27.265625 19.445312 27.273438 19.457031 27.28125 19.464844 C 27.285156 19.46875 27.285156 19.472656 27.289062 19.472656 C 27.296875 19.488281 27.308594 19.5 27.316406 19.515625 C 27.320312 19.515625 27.320312 19.519531 27.324219 19.523438 C 27.332031 19.535156 27.339844 19.542969 27.347656 19.554688 C 27.347656 19.558594 27.351562 19.5625 27.355469 19.566406 C 27.359375 19.578125 27.367188 19.589844 27.375 19.601562 C 27.378906 19.605469 27.378906 19.605469 27.378906 19.609375 C 27.390625 19.625 27.398438 19.636719 27.40625 19.652344 C 27.414062 19.667969 27.421875 19.683594 27.429688 19.699219 C 27.429688 19.699219 27.429688 19.703125 27.433594 19.707031 C 27.4375 19.71875 27.445312 19.730469 27.449219 19.742188 C 27.449219 19.746094 27.453125 19.75 27.453125 19.753906 C 27.460938 19.769531 27.46875 19.78125 27.472656 19.796875 C 27.480469 19.816406 27.484375 19.832031 27.492188 19.847656 C 27.496094 19.863281 27.503906 19.878906 27.507812 19.894531 C 27.507812 19.898438 27.507812 19.898438 27.507812 19.898438 C 27.511719 19.917969 27.519531 19.933594 27.523438 19.949219 C 27.53125 19.980469 27.539062 20.015625 27.542969 20.050781 C 27.546875 20.066406 27.550781 20.085938 27.550781 20.101562 C 27.605469 19.707031 27.480469 19.292969 27.175781 18.988281 L 25.773438 17.582031 C 25.515625 17.324219 25.175781 17.195312 24.835938 17.195312 Z M 17.820312 23.664062 C 17.746094 23.742188 17.6875 23.835938 17.652344 23.949219 L 16.71875 27.226562 C 16.679688 27.351562 16.683594 27.476562 16.71875 27.589844 C 16.71875 27.585938 16.71875 27.585938 16.71875 27.585938 L 17.652344 24.3125 C 17.6875 24.195312 17.746094 24.101562 17.820312 24.023438 L 20.878906 27.082031 C 20.964844 27.046875 21.035156 27 21.09375 26.9375 Z M 17.820312 23.664062 "/>
<path style=" stroke:none;fill-rule:nonzero;fill:rgb(0%,0%,0%);fill-opacity:0.235294;" d="M 27.585938 19.734375 C 27.550781 20.015625 27.425781 20.289062 27.210938 20.503906 L 21.832031 25.882812 L 18.722656 22.773438 L 18.554688 22.941406 L 21.832031 26.214844 L 22.53125 25.511719 L 27.210938 20.835938 C 27.511719 20.535156 27.636719 20.125 27.585938 19.734375 Z M 20.933594 26.71875 C 20.902344 26.734375 20.875 26.746094 20.84375 26.753906 L 17.566406 27.6875 C 17.191406 27.796875 16.835938 27.558594 16.746094 27.21875 C 16.621094 27.710938 17.074219 28.160156 17.566406 28.019531 L 20.84375 27.085938 C 20.957031 27.050781 21.054688 26.992188 21.128906 26.917969 Z M 20.933594 26.71875 "/>
<path style="fill:none;stroke-width:3;stroke-linecap:round;stroke-linejoin:round;stroke:rgb(12.941177%,12.941177%,12.941177%);stroke-opacity:1;stroke-miterlimit:4;" d="M 412.835576 65.973168 C 404.586364 57.661462 391.212641 57.661462 382.900935 65.973168 L 296.846653 152.027451 L 349.279146 204.39745 L 360.465577 193.148524 L 435.333428 118.343167 C 443.58264 110.031461 443.58264 96.720232 435.333428 88.408526 Z M 412.835576 65.973168 " transform="matrix(0.062506,0,0,0.062506,0,13.438783)"/>
<path style="fill:none;stroke-width:3;stroke-linecap:round;stroke-linejoin:round;stroke:rgb(12.941177%,12.941177%,12.941177%);stroke-opacity:1;stroke-miterlimit:4;" d="M 285.660221 163.213882 C 284.41034 164.463763 283.47293 165.96362 282.972977 167.838441 L 267.97441 220.20844 C 265.724625 228.207676 273.09892 235.581972 281.035662 233.269692 L 333.468155 218.333619 C 335.280482 217.771172 336.842833 216.833762 338.03022 215.646375 Z M 285.660221 163.213882 " transform="matrix(0.062506,0,0,0.062506,0,13.438783)"/>
</g>
</svg>
